X:0
T:Planxty Kara Cunningham
M:6/8
L:1/8
Q:1/4=120
C:© Paul Gitlitz 2010
R:Jig
K:Bb
F|:"Bb"B2B Bdc|BAG F2B|"Cm"c2c ced|"F"cBA "Eb"G2A|!
"Bb"B2B Bdc|Bdf "Gm"g2f|"F"fed "Bb"dcB|1"Cm"cdB "F"G2A:|2"Cm"cdc "Bb"B2g|!
|:"Bb"f2B {Bc}BAB|"Cm"g2c {cd}c=Bc|"Eb"edc "Gm"dcB|"Bb"cdB "Eb"G2F|!
"Bb"B,FB, "Gm"GB,F|"Cm"CEC "F"FCE|"F"ABc "Gm"GAB|"F"AGA "Bb"B3:|]
